X:1
T:Title
%%score { ( 1 4 5 6 ) | ( 2 3 7 8 ) }
L:1/8
Q:1/4=100
M:4/4
K:C
V:1 treble nm="Grand Piano"
V:4 treble 
V:5 treble 
V:6 treble 
V:2 bass 
V:3 bass 
V:7 bass 
V:8 bass 
V:1
 C2 A2 A>G F>D | z2 A,2 C2 C>F | z2 z/4 d3/4-d z/4 d3/4-d z2 | z2 z/ a3/2 z/ a3/2 C>F | %4
w: H.~W.~Porter * * * * *||||
 E2 G2 _B2 d2 | [Ed]6 E2 | [A,C]2 [F,A,F]2 A2 c2 | z z/ C/ C>[K:bass]A, (3z[K:treble] _BA (3GFD | %8
w: ||||
 C2 A2 A>G F>D | z2 z/ a3/2 z/ a3/2 z2 | z2 z/ c'3/2 z/ b3/2 z2 | z2 z/ c'3/2 z/ c'3/2 z2 | %12
w: ||||
 .D2 .[D_B]2 .[DB]2 .[_B,D]2 | [A,C]>B, C>F A2 c>B | z2 z/ e'3/2 z/ e'3/2 e>d | %15
w: |||
 z2 [faf']2 (3:2:2z c'2 C>^C | .D2 .[D_B]2 .[DB]2[K:bass] .[F,_B,D]2 | %17
w: ||
 [A,C]>B,[K:treble] C>F A2 Ac | A4 [CAc]4 | [FA]6[K:bass] z2 | C2 A2 A>G F>D | z2 A,2 C2 C>F | %22
w: |||||
 z2 z/4 d3/4-d z/4 d3/4-d z2 | z2 z/4 c3/4-c z/4 c3/4-c z2 | D2 F2 _B2 d2 | %25
w: |||
 [Fd]>[FAc] [FAc][F^GB] [FAc][FA]F=G | z cc'c z c .c'2 | z2 c2 f2 z2 |] %28
w: |||
V:2
 z2 [C,F,A,]2 [F,A,C]2 [D,F,_B,]2 | z2 [C,F,]2 [F,A,]2 z2 | z2 [G,_B,]2 z4 | %3
 z2 [C,F,A,]2 [F,A,C]2 z2 | z2 [_B,CE]2 z2 E2 | z z/ _B,/ G,>E, C,2 z z/ D/ | z2 C,2 z2 [C,F,A,]2 | %7
 F,,6 [D,F,_B,]2 | z2 [C,F,A,]2 [F,A,C]2 [D,F,_B,]2 | z2 [C,F,A,]2 (3:2:2z[K:treble] c'2 C>D | %10
 z2 [E,A,C]2 (3:2:2z[K:treble] e'2 A>B | z2 [E,A,C]2 (3:2:2z[K:treble] e'2 C2 | %12
 .[_B,,,_B,,]2 .[B,,F,]2 .[B,,F,]2 .[B,,F,]2 | z4 z2[K:treble] C2 | G6 z2 | %15
 z4[K:treble] z/4 f3/4-f z2 | .[_B,,,_B,,]2 .[B,,F,]2 .[B,,F,]2 .B,,2 | %17
 z2 [C,F,A,]2 [C,F,A,]2 [C,F,A,]2 | z2 [C,F,]2 z2 z C | z2 C,2 F,2 C,2 | %20
 z2 [C,F,A,]2 [F,A,C]2 [D,F,_B,]2 | z2 [C,F,]2 [F,A,]2 z2 | C,2 [G,_B,]2 [G,B,E]2 z2 | %23
 z2 [C,F,A,]2 [F,A,C]2 z2 | z2 [F,_B,D]2 [F,B,DF]2 [F,B,DF]2 | z2 [F,A,C]2 [F,A,C]2 [D,,D,]2 | %26
 C,2 [C,F,A,]2 C,2 [C,E,_B,G]2 | z2 [C,F,A,]2 [C,F,A,]2 z2 |] %28
V:3
 F,,6 z2 | F,,6 z2 | C,2 C,2- [C,G,_B,E]2 z2 | F,,6 z2 | G,,4 [E,,C,]4 | C,4 z2 _B,2 | F,,4 C,,4 | %7
 x8 | F,,6 z2 | z4 [F,A,]2[K:treble] z2 | z4 [^G,D]2[K:treble] z2 | z4 [A,C]2[K:treble] z2 | x8 | %13
 [F,,F,]2 [C,F,A,]2 [C,F,A,]2[K:treble] A>^G | z2 C2 C2 c>_B | z2 C2[K:treble] z/ a3/2 z2 | x8 | %17
 F,,8 | z4 z2 C,2 | F,,8 | F,,6 z2 | F,,6 z2 | z2 C,4 z2 | F,,6 z2 | [_B,,,_B,,]8 | [C,,C,]6 z2 | %26
 C,,4 C,,4 | F,,6 z2 |] %28
V:4
 x8 | C4 z4 | z2 z/ _b3/2 z/ b3/2 D>E | z2 z/4 c3/4-c z/4 c3/4-c z2 | x8 | x8 | x8 | %7
 c4[K:bass] F,2[K:treble] z2 | x8 | z4 z/4 f3/4-f z2 | (7:8:7z/ z/ z/ z/4 e/4-[ea]/-[eae'] e2 z2 | %11
 z4 z/4 a3/4-a z2 | x8 | x8 | z2 z/4 _b3/4-b z/4 b3/4-b z2 | c4 c2 z2 | x6[K:bass] x2 | %17
 x2[K:treble] x6 | z2 z C z2 z [G_B] | C2- [F,A,C]2[K:bass] [A,C]2 [F,A,]2 | x8 | C4 z4 | %22
 z2 z/ _b3/2 z/ b3/2 D>E | z2 z/ a3/2 z/ a3/2 C>^C | x8 | z4 z2 B,2 | A4 A2 z2 | F6 z2 |] %28
V:5
 x8 | x8 | z2 _B2 B2 z2 | z2 A2 A2 z2 | x8 | x8 | x8 | x7/2[K:bass] x7/6[K:treble] x10/3 | x8 | %9
 (7:8:7z/ z/ z/ z/4 c/4-[cf]/-[cfc'] c2 z2 | z4 z/4 ^g3/4-g z2 | %11
 (7:8:7z/ z/ z/ z/4 e/4-[ea]/-[eae'] e2 z z/ ^C/ | x8 | x8 | z2 e2 e2 z2 | A6 z2 | x6[K:bass] x2 | %17
 x2[K:treble] x6 | z2 A,2 z2 [E,_B,]2 | x4[K:bass] x4 | x8 | x8 | z2 _B2 B2 z2 | z2 A2 A2 z2 | x8 | %25
 x8 | x8 | x8 |] %28
V:6
 x8 | x8 | E4 z4 | C4 z4 | x8 | x8 | x8 | x7/2[K:bass] x7/6[K:treble] x10/3 | x8 | C6 z2 | E6 z2 | %11
 c6 z2 | x8 | x8 | _B6 z2 | x8 | x6[K:bass] x2 | x2[K:treble] x6 | x8 | x4[K:bass] x4 | x8 | x8 | %22
 E4 z4 | C4 z4 | x8 | x8 | x8 | x8 |] %28
V:7
 x8 | x8 | C,,6 z2 | x8 | x8 | x8 | x8 | x8 | x8 | z4 C,2[K:treble] z2 | z4 E,2[K:treble] z2 | %11
 z4 E,2[K:treble] z2 | x8 | x6[K:treble] x2 | x8 | z4[K:treble] C2 z2 | x8 | x8 | C,,4 C,,4 | x8 | %20
 x8 | x8 | C,,6 z2 | x8 | x8 | x8 | x8 | x8 |] %28
V:8
 x8 | x8 | x8 | x8 | x8 | x8 | x8 | x8 | x8 | F,,6[K:treble] z2 | E,,6[K:treble] z2 | %11
 A,,6[K:treble] z2 | x8 | x6[K:treble] x2 | x8 | F,,6[K:treble] z2 | x8 | x8 | x8 | x8 | x8 | x8 | %22
 x8 | x8 | x8 | x8 | x8 | x8 |] %28

